svgs/sharp-regular/square-3.svg

<svg xmlns="http://www.w3.org/2000/svg" viewBox="0 0 448 512"><!--! Font Awesome Pro 6.6.0 by @fontawesome - https://fontawesome.com License - https://fontawesome.com/license (Commercial License) Copyright 2024 Fonticons, Inc. --><path d="M48 80l0 352 352 0 0-352L48 80zM0 32l48 0 352 0 48 0 0 48 0 352 0 48-48 0L48 480 0 480l0-48L0 80 0 32zm280 96l24 0 0 34.6-7.8 7.1-50.8 46.5c41.9 4.8 74.6 40.4 74.6 83.6c0 46.5-37.7 84.2-84.2 84.2l-25.2 0c-32.2 0-61.6-18.2-76-47l-4.2-8.3 42.9-21.5 4.2 8.3c6.3 12.5 19.1 20.4 33 20.4l25.2 0c20 0 36.2-16.2 36.2-36.2c0-20.1-16.3-36.3-36.4-36.2l-51.5 .3-24.1 .1 0-34.7 7.8-7.1L218.3 176 152 176l-24 0 0-48 24 0 128 0z"/></svg>

<svg xmlns="http://www.w3.org/2000/svg" viewBox="0 0 448 512"><!--! Font Awesome Pro 6.4.2 by @fontawesome - https://fontawesome.com License - https://fontawesome.com/license (Commercial License) Copyright 2023 Fonticons, Inc. --><path d="M48 80V432H400V80H48zM0 32H48 400h48V80 432v48H400 48 0V432 80 32zm280 96h24v34.6l-7.8 7.1-50.8 46.5c41.9 4.8 74.6 40.4 74.6 83.6c0 46.5-37.7 84.2-84.2 84.2H210.7c-32.2 0-61.6-18.2-76-47l-4.2-8.3 42.9-21.5 4.2 8.3c6.3 12.5 19.1 20.4 33 20.4h25.2c20 0 36.2-16.2 36.2-36.2c0-20.1-16.3-36.3-36.4-36.2l-51.5 .3-24.1 .1V229.4l7.8-7.1L218.3 176H152 128V128h24H280z"/></svg>
